({"name":demo, "describe":"三轴机床测试示例"})
; GCODE Generated by cam.openbuilds.com on 2022-09-06
G21 ; mm-mode
G17 G54 G40 G49 G80 G90 M3 S15000
; Operation 0: CNC: Pocket
; Endmill Diameter: 6

G0 Z5; move to z-safe height
G0 F1000 X310.6000 Y110.6000

G0 Z0
G1 F600 Z-0.5000
G1 F1500 X104.4000 Y110.6000 Z-0.5000 S15000
G1 F1500 X104.4000 Y104.4000 Z-0.5000 S15000
G1 F1500 X310.6000 Y104.4000 Z-0.5000 S15000
G1 F1500 X310.6000 Y110.6000 Z-0.5000 S15000

G0 Z5; move to z-safe height
G0 X314.2000 Y114.2000

G0 Z0
G1 F600 Z-0.5000
G1 F1500 X100.8000 Y114.2000 Z-0.5000 S15000
G1 F1500 X100.8000 Y100.8000 Z-0.5000 S15000
G1 F1500 X314.2000 Y100.8000 Z-0.5000 S15000
G1 F1500 X314.2000 Y114.2000 Z-0.5000 S15000

G0 Z5; move to z-safe height
G0 X317.8000 Y117.8000

G0 Z0
G1 F600 Z-0.5000
G1 F1500 X97.2000 Y117.8000 Z-0.5000 S15000
G1 F1500 X97.2000 Y97.2000 Z-0.5000 S15000
G1 F1500 X317.8000 Y97.2000 Z-0.5000 S15000
G1 F1500 X317.8000 Y117.8000 Z-0.5000 S15000

G0 Z5; move to z-safe height
G0 X321.4000 Y121.4000

G0 Z0
G1 F600 Z-0.5000
G1 F1500 X93.6000 Y121.4000 Z-0.5000 S15000
G1 F1500 X93.6000 Y93.6000 Z-0.5000 S15000
G1 F1500 X321.4000 Y93.6000 Z-0.5000 S15000
G1 F1500 X321.4000 Y121.4000 Z-0.5000 S15000

G0 Z5; move to z-safe height
G0 X325.0000 Y125.0000

G0 Z0
G1 F600 Z-0.5000
G1 F1500 X90.0000 Y125.0000 Z-0.5000 S15000
G1 F1500 X90.0000 Y90.0000 Z-0.5000 S15000
G1 F1500 X325.0000 Y90.0000 Z-0.5000 S15000
G1 F1500 X325.0000 Y125.0000 Z-0.5000 S15000

G0 Z5; move to z-safe height
G0 X328.6000 Y128.6000

G0 Z0
G1 F600 Z-0.5000
G1 F1500 X86.4000 Y128.6000 Z-0.5000 S15000
G1 F1500 X86.4000 Y86.4000 Z-0.5000 S15000
G1 F1500 X328.6000 Y86.4000 Z-0.5000 S15000
G1 F1500 X328.6000 Y128.6000 Z-0.5000 S15000

G0 Z5; move to z-safe height
G0 X332.2000 Y132.2000

G0 Z0
G1 F600 Z-0.5000
G1 F1500 X82.8000 Y132.2000 Z-0.5000 S15000
G1 F1500 X82.8000 Y82.8000 Z-0.5000 S15000
G1 F1500 X332.2000 Y82.8000 Z-0.5000 S15000
G1 F1500 X332.2000 Y132.2000 Z-0.5000 S15000

G0 Z5; move to z-safe height
G0 X335.8000 Y135.8000

G0 Z0
G1 F600 Z-0.5000
G1 F1500 X79.2000 Y135.8000 Z-0.5000 S15000
G1 F1500 X79.2000 Y79.2000 Z-0.5000 S15000
G1 F1500 X335.8000 Y79.2000 Z-0.5000 S15000
G1 F1500 X335.8000 Y135.8000 Z-0.5000 S15000

G0 Z5; move to z-safe height
G0 X339.4000 Y139.4000

G0 Z0
G1 F600 Z-0.5000
G1 F1500 X75.6000 Y139.4000 Z-0.5000 S15000
G1 F1500 X75.6000 Y75.6000 Z-0.5000 S15000
G1 F1500 X339.4000 Y75.6000 Z-0.5000 S15000
G1 F1500 X339.4000 Y139.4000 Z-0.5000 S15000

G0 Z5; move to z-safe height
G0 X343.0000 Y143.0000

G0 Z0
G1 F600 Z-0.5000
G1 F1500 X72.0000 Y143.0000 Z-0.5000 S15000
G1 F1500 X72.0000 Y72.0000 Z-0.5000 S15000
G1 F1500 X343.0000 Y72.0000 Z-0.5000 S15000
G1 F1500 X343.0000 Y143.0000 Z-0.5000 S15000

G0 Z5; move to z-safe height
G0 X346.6000 Y146.6000

G0 Z0
G1 F600 Z-0.5000
G1 F1500 X68.4000 Y146.6000 Z-0.5000 S15000
G1 F1500 X68.4000 Y68.4000 Z-0.5000 S15000
G1 F1500 X346.6000 Y68.4000 Z-0.5000 S15000
G1 F1500 X346.6000 Y146.6000 Z-0.5000 S15000

G0 Z5; move to z-safe height
G0 X350.2000 Y150.2000

G0 Z0
G1 F600 Z-0.5000
G1 F1500 X64.8000 Y150.2000 Z-0.5000 S15000
G1 F1500 X64.8000 Y64.8000 Z-0.5000 S15000
G1 F1500 X350.2000 Y64.8000 Z-0.5000 S15000
G1 F1500 X350.2000 Y150.2000 Z-0.5000 S15000

G0 Z5; move to z-safe height
G0 X353.8000 Y153.8000

G0 Z0
G1 F600 Z-0.5000
G1 F1500 X61.2000 Y153.8000 Z-0.5000 S15000
G1 F1500 X61.2000 Y61.2000 Z-0.5000 S15000
G1 F1500 X353.8000 Y61.2000 Z-0.5000 S15000
G1 F1500 X353.8000 Y153.8000 Z-0.5000 S15000

G0 Z5; move to z-safe height
G0 X357.4000 Y157.4000

G0 Z0
G1 F600 Z-0.5000
G1 F1500 X57.6000 Y157.4000 Z-0.5000 S15000
G1 F1500 X57.6000 Y57.6000 Z-0.5000 S15000
G1 F1500 X357.4000 Y57.6000 Z-0.5000 S15000
G1 F1500 X357.4000 Y157.4000 Z-0.5000 S15000

G0 Z5; move to z-safe height
G0 X361.0000 Y161.0000

G0 Z0
G1 F600 Z-0.5000
G1 F1500 X54.0000 Y161.0000 Z-0.5000 S15000
G1 F1500 X54.0000 Y54.0000 Z-0.5000 S15000
G1 F1500 X361.0000 Y54.0000 Z-0.5000 S15000
G1 F1500 X361.0000 Y161.0000 Z-0.5000 S15000

G0 Z5; move to z-safe height
G0 X364.6000 Y164.6000

G0 Z0
G1 F600 Z-0.5000
G1 F1500 X50.4000 Y164.6000 Z-0.5000 S15000
G1 F1500 X50.4000 Y50.4000 Z-0.5000 S15000
G1 F1500 X364.6000 Y50.4000 Z-0.5000 S15000
G1 F1500 X364.6000 Y164.6000 Z-0.5000 S15000

G0 Z5; move to z-safe height
G0 X368.2000 Y168.2000

G0 Z0
G1 F600 Z-0.5000
G1 F1500 X46.8000 Y168.2000 Z-0.5000 S15000
G1 F1500 X46.8000 Y46.8000 Z-0.5000 S15000
G1 F1500 X368.2000 Y46.8000 Z-0.5000 S15000
G1 F1500 X368.2000 Y168.2000 Z-0.5000 S15000

G0 Z5; move to z-safe height
G0 X371.8000 Y171.8000

G0 Z0
G1 F600 Z-0.5000
G1 F1500 X43.2000 Y171.8000 Z-0.5000 S15000
G1 F1500 X43.2000 Y43.2000 Z-0.5000 S15000
G1 F1500 X371.8000 Y43.2000 Z-0.5000 S15000
G1 F1500 X371.8000 Y171.8000 Z-0.5000 S15000

G0 Z5; move to z-safe height
G0 X375.4000 Y175.4000

G0 Z0
G1 F600 Z-0.5000
G1 F1500 X39.6000 Y175.4000 Z-0.5000 S15000
G1 F1500 X39.6000 Y39.6000 Z-0.5000 S15000
G1 F1500 X375.4000 Y39.6000 Z-0.5000 S15000
G1 F1500 X375.4000 Y175.4000 Z-0.5000 S15000

G0 Z5; move to z-safe height
G0 X379.0000 Y179.0000

G0 Z0
G1 F600 Z-0.5000
G1 F1500 X36.0000 Y179.0000 Z-0.5000 S15000
G1 F1500 X36.0000 Y36.0000 Z-0.5000 S15000
G1 F1500 X379.0000 Y36.0000 Z-0.5000 S15000
G1 F1500 X379.0000 Y179.0000 Z-0.5000 S15000

G0 Z5; move to z-safe height
G0 X382.6000 Y182.6000

G0 Z0
G1 F600 Z-0.5000
G1 F1500 X32.4000 Y182.6000 Z-0.5000 S15000
G1 F1500 X32.4000 Y32.4000 Z-0.5000 S15000
G1 F1500 X382.6000 Y32.4000 Z-0.5000 S15000
G1 F1500 X382.6000 Y182.6000 Z-0.5000 S15000

G0 Z5; move to z-safe height
G0 X386.2000 Y186.2000

G0 Z0
G1 F600 Z-0.5000
G1 F1500 X28.8000 Y186.2000 Z-0.5000 S15000
G1 F1500 X28.8000 Y28.8000 Z-0.5000 S15000
G1 F1500 X386.2000 Y28.8000 Z-0.5000 S15000
G1 F1500 X386.2000 Y186.2000 Z-0.5000 S15000

G0 Z5; move to z-safe height
G0 X389.8000 Y189.8000

G0 Z0
G1 F600 Z-0.5000
G1 F1500 X25.2000 Y189.8000 Z-0.5000 S15000
G1 F1500 X25.2000 Y25.2000 Z-0.5000 S15000
G1 F1500 X389.8000 Y25.2000 Z-0.5000 S15000
G1 F1500 X389.8000 Y189.8000 Z-0.5000 S15000

G0 Z5; move to z-safe height
G0 X393.4000 Y193.4000

G0 Z0
G1 F600 Z-0.5000
G1 F1500 X21.6000 Y193.4000 Z-0.5000 S15000
G1 F1500 X21.6000 Y21.6000 Z-0.5000 S15000
G1 F1500 X393.4000 Y21.6000 Z-0.5000 S15000
G1 F1500 X393.4000 Y193.4000 Z-0.5000 S15000

G0 Z5; move to z-safe height
G0 X397.0000 Y197.0000

G0 Z0
G1 F600 Z-0.5000
G1 F1500 X18.0000 Y197.0000 Z-0.5000 S15000
G1 F1500 X18.0000 Y18.0000 Z-0.5000 S15000
G1 F1500 X397.0000 Y18.0000 Z-0.5000 S15000
G1 F1500 X397.0000 Y197.0000 Z-0.5000 S15000

G0 Z5; move to z-safe height
G0 X400.6000 Y200.6000

G0 Z0
G1 F600 Z-0.5000
G1 F1500 X14.4000 Y200.6000 Z-0.5000 S15000
G1 F1500 X14.4000 Y14.4000 Z-0.5000 S15000
G1 F1500 X400.6000 Y14.4000 Z-0.5000 S15000
G1 F1500 X400.6000 Y200.6000 Z-0.5000 S15000

G0 Z5; move to z-safe height
G0 X404.2000 Y204.2000

G0 Z0
G1 F600 Z-0.5000
G1 F1500 X10.8000 Y204.2000 Z-0.5000 S15000
G1 F1500 X10.8000 Y10.8000 Z-0.5000 S15000
G1 F1500 X404.2000 Y10.8000 Z-0.5000 S15000
G1 F1500 X404.2000 Y204.2000 Z-0.5000 S15000

G0 Z5; move to z-safe height
G0 X407.8000 Y207.8000

G0 Z0
G1 F600 Z-0.5000
G1 F1500 X7.2000 Y207.8000 Z-0.5000 S15000
G1 F1500 X7.2000 Y7.2000 Z-0.5000 S15000
G1 F1500 X407.8000 Y7.2000 Z-0.5000 S15000
G1 F1500 X407.8000 Y207.8000 Z-0.5000 S15000

G0 Z5; move to z-safe height
G0 X412.0000 Y212.0000

G0 Z0
G1 F600 Z-0.5000
G1 F1500 X3.0000 Y212.0000 Z-0.5000 S15000
G1 F1500 X3.0000 Y3.0000 Z-0.5000 S15000
G1 F1500 X412.0000 Y3.0000 Z-0.5000 S15000
G1 F1500 X412.0000 Y212.0000 Z-0.5000 S15000
; retracting back to z-safe
G0 Z5

M05 M2